X: 42067
T: Waltz Of The Little Girls, The
R: waltz
M: 3/4
K: Dmajor
|:dc BA|F2- FE DE|F2 dc BA|FG FE D/E/F|G2- GF GA|
B2 BA GF|E2 EF GA|BA Bc BA|1 F2:|2 d2||
|:DF Ad|c2- cB AB|DF BF AF|EG EA Ec|d2 DF Ad|
c2 cB AB|DF BF AF|EG EA Ec|d2:|


